svg/N_Arrows/11.svg

<?xml version="1.0" encoding="UTF-8" standalone="no"?>
<!-- Created with Inkscape (http://www.inkscape.org/) -->
<svg
   xmlns:dc="http://purl.org/dc/elements/1.1/"
   xmlns:cc="http://web.resource.org/cc/"
   xmlns:rdf="http://www.w3.org/1999/02/22-rdf-syntax-ns#"
   xmlns:svg="http://www.w3.org/2000/svg"
   xmlns="http://www.w3.org/2000/svg"
   xmlns:sodipodi="http://sodipodi.sourceforge.net/DTD/sodipodi-0.dtd"
   xmlns:inkscape="http://www.inkscape.org/namespaces/inkscape"
   width="744.09448819"
   height="1052.3622047"
   id="svg2"
   sodipodi:version="0.32"
   inkscape:version="0.44.1"
   sodipodi:docbase="F:\QGIS_N_ARROWS\NORD_EST"
   sodipodi:docname="FINALE.svg"
   inkscape:export-filename="F:\QGIS_N_ARROWS\NORD_EST\FINALE.png"
   inkscape:export-xdpi="300"
   inkscape:export-ydpi="300">
  <defs
     id="defs4" />
  <sodipodi:namedview
     id="base"
     pagecolor="#ffffff"
     bordercolor="#666666"
     borderopacity="1.0"
     inkscape:pageopacity="0.0"
     inkscape:pageshadow="2"
     inkscape:zoom="0.98994949"
     inkscape:cx="375"
     inkscape:cy="520"
     inkscape:document-units="px"
     inkscape:current-layer="layer1"
     showgrid="true"
     inkscape:window-width="1280"
     inkscape:window-height="744"
     inkscape:window-x="-4"
     inkscape:window-y="-4" />
  <metadata
     id="metadata7">
    <rdf:RDF>
      <cc:Work
         rdf:about="">
        <dc:format>image/svg+xml</dc:format>
        <dc:type
           rdf:resource="http://purl.org/dc/dcmitype/StillImage" />
      </cc:Work>
    </rdf:RDF>
  </metadata>
  <g
     inkscape:label="Livello 1"
     inkscape:groupmode="layer"
     id="layer1">
    <g
       id="g1997">
      <flowRoot
         transform="translate(188.4447,297.2735)"
         style="font-size:56px;font-family:Arial Black"
         id="flowRoot2798"
         xml:space="preserve"><flowRegion
           id="flowRegion2800"><rect
             style="font-size:56px;font-family:Arial Black"
             y="270.93362"
             x="321.42856"
             height="74.285713"
             width="68.571426"
             id="rect2802" /></flowRegion><flowPara
           id="flowPara2804">E</flowPara></flowRoot>      <flowRoot
         transform="translate(5.458219,12.07249)"
         style="font-size:56px;font-family:Arial Black"
         id="flowRoot2790"
         xml:space="preserve"><flowRegion
           id="flowRegion2792"><rect
             style="font-size:56px;font-family:Arial Black"
             y="270.93362"
             x="321.42856"
             height="74.285713"
             width="68.571426"
             id="rect2794" /></flowRegion><flowPara
           id="flowPara2796">N</flowPara></flowRoot>      <g
         transform="matrix(6.566357,0,0,6.602753,-2030.99,-3056.471)"
         id="g1993">
        <path
           style="fill:black;fill-opacity:1;fill-rule:evenodd;stroke:black;stroke-width:1.51286328px;stroke-linecap:butt;stroke-linejoin:miter;stroke-opacity:1"
           d="M 360.11698,554.78432 L 360.11698,530.68235 L 357.48858,533.04951 L 362.491,515.61862 L 367.15429,532.40393 L 364.86503,530.68235 L 364.86503,554.78432 L 360.11698,554.78432 z "
           id="path1989"
           sodipodi:nodetypes="cccccccc" />
        <path
           style="fill:black;fill-opacity:1;fill-rule:evenodd;stroke:black;stroke-width:1.21646953px;stroke-linecap:butt;stroke-linejoin:miter;stroke-opacity:1"
           d="M 360.60824,550.26871 L 375.72776,550.26871 L 374.24282,547.55972 L 385.17747,552.71553 L 374.6478,557.52181 L 375.72776,555.16236 L 360.60824,555.16236 L 360.60824,550.26871 z "
           id="path1991"
           sodipodi:nodetypes="cccccccc" />
      </g>
    </g>
  </g>
</svg>

<svg xmlns="http://www.w3.org/2000/svg" viewBox="0 0 744.09 1052.36" xmlns:xlink="http://www.w3.org/1999/xlink"><g font-family="Arial Black" font-size="56"><flowRoot transform="translate(188.44 297.27)"><flowRegion><path d="m321.43 270.93h68.57v74.28h-68.57z" id="0"/></flowRegion><flowPara>E</flowPara></flowRoot><flowRoot transform="translate(5.458 12.07)"><flowRegion><use xlink:href="#0"/></flowRegion><flowPara>N</flowPara></flowRoot></g><g transform="matrix(6.56636 0 0 6.60275-2030.99-3056.47)" fill-rule="evenodd" stroke="#000"><path d="m360.12 554.78v-24.1l-2.628 2.367 5-17.431 4.663 16.785-2.289-1.722v24.1h-4.748z" stroke-width="1.513"/><path d="m360.61 550.27h15.12l-1.485-2.709 10.935 5.156-10.53 4.806 1.08-2.359h-15.12v-4.894z" stroke-width="1.216"/></g></svg>
